src/assets/polymarket.svg

<svg fill="none" height="16" viewBox="0 0 15 16" width="15" xmlns="http://www.w3.org/2000/svg"><rect fill="#1652f0" height="15" rx="7.5" width="15" y=".101501"/><path d="m11.3002 12.3263-7.5336-2.1524v-5.16215l7.5336-2.15244zm-.728-4.13217-5.54074 1.57891 5.54074 1.57886zm-6.07753-2.18325v3.16391l5.54073-1.57884zm6.07753-2.18944-5.54074 1.58504 5.54074 1.57884z" fill="#fffeff"/></svg>

<svg xmlns="http://www.w3.org/2000/svg" width="15" height="16" viewBox="0 0 15 16" fill="none">
  <rect y="0.101501" width="15" height="15" rx="7.5" fill="#1652F0"/>
  <path d="M11.3002 12.3263L3.7666 10.1739V5.01175L11.3002 2.85931V12.3263ZM10.5722 8.19413L5.03146 9.77304L10.5722 11.3519V8.19413ZM4.49467 6.01088V9.17479L10.0354 7.59595L4.49467 6.01088ZM10.5722 3.82144L5.03146 5.40648L10.5722 6.98532V3.82144Z" fill="#FFFEFF"/>
</svg>
